X: 38359
T: Stan Pickett's
R: polka
M: 2/4
K: Gmajor
|:dB GB|AB A2-|Af ef|ed BB/c/|
dB GB|AB A2-|Af ed|1 BA GB/c/:|2 BA G2||
|:G2 g2|fg A2-|Af ef|ed BB/c/|
dg gg|fg A2-|Af ed|1 BA G2:|2 BA GB/c/||

